X:1
T:Title
%%score 1 2 3
L:1/8
M:2/2
K:C
V:1 treble nm="Part_1"
V:2 treble-8 nm="Part_2"
V:3 treble-8 nm="Part_3"
V:1
 D8 | C8 | D6 E2 | F8 | z4 F4- | F4 D4- | D2 E2 F4 | G6 F2 | D4 F4- | F2 E2 D2 C2 |[M:3/2] C8 B,4 | %11
[M:2/2] C8 | z8 | D4 C4 | D4 F4- | F4 E4 | G4 F4- | F4 _B4 | A2 G2 F4- | F4 E4 | F8 | z8 | G8 | %23
 F8 | G8 | A8 | G8 | c6 B2 | A2 G2 G4- | G2 ^F4 E2 | G8- | G8 | z8 | G8 | F8 | D8 | F8 | E4 C4 | %38
 D4 E4- | E2 C2 C4- | C4 B,4 | C8 | z8 | D8- | D4 E4 | F8 | G8- | G4 F4- | F4 E4 | F8 | D8 | D8 | %52
 C4 F4- | F8 | F4 E4 | F8 | z8 | G8- | G8 | A8- | A8 | G8 | F8 | G8 | G8 | F4 E4- | E4 F4- | %67
 F4 D4- | D4 C4 | D8 | F8 | E8 | F6 E2 | C6 D2 | E2 F2 G4- | G2 F2 D4- | D4 A4- | A2 G2 E4 | G8 | %79
 F8 | E4 F4- | F2 D2 D4- | D4 C4 | D8 |] %84
V:2
 A8 | F8 | D4 B4 | A8 | d4 d4- | d2 c2 B4 | A4 d4 | c2 B4 A2 | B2 c2 d2 c2 | A8 |[M:3/2] G8 F4 | %11
[M:2/2] (3:2:2G8 A4 | B4 c4 | A8 | z4 D4- | D4 C4 | E4 D4 | z4 G4 | F8 | C8 | c4 A4 | G4 A2 B2 | %22
 c8 | d8 | _B8 | A4 c4- | c4 G4 | A4 F4- | F4 G4 | D8 | d8 | e6 d2 | B6 A2 | c8 | A8 | z4 B4 | %36
 c4 d4 | B4 G4 | A4 B4 | G4 A4 | F6 E2 | G8 | z8 | B8- | B8 | A4 d4 | c2 B2 c4 | C4 F4 | C8 | D8 | %50
 z4 B4 | A8 | G4 A4 | D4 F4 | C8 | c8 | A4 B4 | c6 B2 | G4 B4 | A2 c4 d2 | f2 e2 c2 d2 | e6 d2 | %62
 _B6 A2 | c8 | G2 A2 B4 | c8 | B4 A4- | A8 | A4 G4 | A8 | D8 | A8 | D8 | A4 B4 | c6 B2 | G4 B4- | %76
 B2 c2 d4 | c8- | c8 | d4 D4 | c4 d4 | A4 B4 | (3:2:2G8 F4 | A8 |] %84
V:3
 D8 | A8 | F4 G4 | F2 E2 D4- | D8 | D4 z4 | F4 D4 | E6 F2 | G4 D4 | F8 |[M:3/2] E4 D8 |[M:2/2] C8 | %12
 D4 C4 | D4 F4- | F4 A4 | B4 c4- | c4 d4 | _B8 | c4 A4 | G8 | F8 | D4 F4 | E8 | D8 | z4 E4 | F8 | %26
 C8 | z4 c4- | c4 B4 | A8 | G8 | E4 C4 | D8 | C8 | z4 D4 | F4 G4 | A4 D4 | G4 E4 | F4 G4 | E4 F4 | %40
 D8 | C8 | z8 | G8- | G8 | D8 | E4 C4 | c4 A4 | G8 | z4 F4 | G6 F2 | D4 E4- | E4 D4 | A8 | G8 | %55
 F8- | F8 | C8 | E8 | F8- | F8 | C8 | D8 | E4 C4- | C4 G4 | A8 | G4 F4 | D4 F4 | E8 | D8 | z4 d4 | %71
 c8 | d4 A4- | A2 G2 E4 | C6 D2 | E2 F2 G4- | G2 F2 D4 | A6 G2 | E8 | D4 d4 | A4 D4 | F4 G4 | E8 | %83
 D8 |] %84

